X:18977
T:Xiraldilla (CT 108)
R:Xiraldilla
C:Tradicional
S:Música Tradicional Asturiana, (C) Tello & Tito. Asturies, 2001.
S:http://pagina.de/MusTradAst <telloytito@asturies.org>
N:Xiraldilla, dictada por Estanislao Lana Lana, de veintiún años, de Somiedu.
O:Somiedu
A:Asturies
Z:Cancioneru de Torner 108
M:2/4
L:1/8
Q:1/4=118
W:Mi abuelo tenía un huerto,
W:chiriviriví,
W:que criaba muchos nabos,
W:chiriviriví.
W:También tenía un borrico
W:pa llevarlos al mercado.
W:En el medio del camino
W:le salieron los gitanos.
W:Le robaron el borrico
W:y le dejaron sin nabos.
K:C
GB
|dd GB|dd c/B/A/B/|c2 cd|ee cc|ff e/c/B/c/|d2 Bc|d (B/d/) cB|AB/>A/ G2-|G2 :||


